X:1
T:Title
%%score { ( 1 3 ) | ( 2 4 ) }
L:1/8
Q:1/4=72
M:3/8
K:A
V:1 treble nm="Grand Piano"
V:3 treble 
V:2 bass 
V:4 bass 
V:1
 A>GA | B2 B | [Ec]>[EB][Ec] | [Fd]3 | e>de | [Af]2 z/ B,/ | ABG | [CA]3 | [CE][Cc][EA] | %9
w: Alfred~Redhead * *|||||||||
 [EF]>[EF][DF] | GFE | [Ec]3 | [Ec][E^d][Ec] | [EB]>[CEA][B,EG] | [CEA][B,EG][A,^DF] | E3 | %16
w: |||||||
 [E,CE][Cc][EA] | [EF]>[EF][DF] | GFE | [Ec]3 | [=Ge][Gd][Gc] | [Fc]>[FB][FA] | ABG | [CA]3 | %24
w: ||||||||
 A>GA | B2 B | [Ec]>[EB][Ec] | [Fd]3 | e>de | [Af]2 z/ B,/ | ABG |[M:11/8] [CA]3 z z z z z z z2 |] %32
w: ||||||||
V:2
 [A,CE]>[A,CE][F,A,^D] | [E,A,E]2 [E,G,E] | [C,^A,]>[C,A,][F,A,] | [B,,B,]3 | %4
 [A,C=G]>[A,B,G][A,CG] | [D,D]2 .[F,A,^D] | [E,CE][E,DE][E,B,D] | [A,,A,]3 | [A,,A,][A,,E,][C,A,] | %9
 [D,A,]>[D,A,][B,,B,] | [E,B,D][E,A,D][E,G,D] | [A,,A,]3 | [^A,,=G,][A,,G,][A,,G,] | %13
 [B,,G,]>B,,B,, | B,,B,,B,, | z z G, | A,,[A,,E,][C,A,] | [D,A,]>[D,A,][B,,B,] | %18
 [E,B,D][E,A,D][E,G,D] | [A,,A,]3 | [C,A,][C,A,][C,A,] | [D,A,]>[D,B,][^D,=C] | %22
 [E,CE][E,DE][E,B,D] | [A,,E,A,]3 | [A,CE]>[A,CE][F,A,^D] | [E,A,E]2 [E,G,E] | %26
 [C,^A,]>[C,A,][F,A,] | [B,,B,]3 | [A,C=G]>[A,B,G][A,CG] | [D,D]2 .[F,A,^D] | [E,CE][E,DE][E,B,D] | %31
[M:11/8] [A,,A,]3 z z z z z z z2 |] %32
V:3
 x3 | x3 | x3 | x3 | x3 | z z A | x3 | x3 | x3 | x3 | x3 | x3 | x3 | x3 | x3 | [A,B,]2 D | x3 | %17
 x3 | x3 | x3 | x3 | x3 | x3 | x3 | x3 | x3 | x3 | x3 | x3 | z z A | x3 |[M:11/8] x11 |] %32
V:4
 x3 | x3 | x3 | x3 | x3 | x3 | x3 | x3 | x3 | x3 | x3 | x3 | x3 | x3 | x3 | E,3 | x3 | x3 | x3 | %19
 x3 | x3 | x3 | x3 | x3 | x3 | x3 | x3 | x3 | x3 | x3 | x3 |[M:11/8] x11 |] %32

